X:377
T: Mojiao Shange,leng le tai
N: C1412
O: China, Shaanxi, Nanzheng
S: I, 87]
N: Zhuandiao: a YU - F GONG - a YU - F GONG
R: Shange. Duige]
M: 3/4
L: 1/16
K: C
e3dc2d6 | e2ded2c2 | A2A6
d8 | e2ded2c2 | A2A6
A4d4 | A2G2d4 | _B2ABA2G2 | F2F6
A2c2A2A2 | d4A4 | _B2ABA2G2 | F2F6
e3dd2c2 | c2d6 | e2c2d2c2 | c2A6
d8 | e2c2d2c2 | A2A6
A2d4d2 | A4d4 | A2c2A2G2 | F2F6
A2c2A2A2 | d4A4 | A2c2A2G2 | F2F6

